X:76
T:Katie's Fancy
R:jig
S:Session at Fleadh Ceol in Sligo 1990
Z:id:hn-jig-76
M:6/8
K:G
DEF G2A|Bgf efg|dBG FGA|BGB cAF|DEF G2A|Bgf efg|dBG FGA|1 BGG G2E:|2 BGG GBd||
|:gfe agf|gfe dBG|gfe dcB|AGA BGE|DEF G2A|Bgf efg|dBG FGA|BGG GBd:|
|:gfg gab|eag fed|bag f/g/ag|fge d2d|ede gfe|dBG DGB|cAF DFA|1 BGG GBd:|2 BGG G2E||
<end>
<start>
